X: 171
T:The Lassie's Fancy
% Nottingham Music Database
S:FTB 2/39, via EF
Y:AB
M:6/8
K:D
P:A
f|"D"d2A AFA|"D"B2A AFA|"D"d2A AGF|"Em"EFE "A7"ABc|
"D"d2A AFA|"G"B2A "A"ABc|"Bm"dgf "A7"eac|"D"d3 d2:|
P:B
f/2g/2|"D"afd dfa|"G"gec "A7"ceg|"D"fed dcd|"A7"ecA A2f/2g/2|
"D"afd dfa|"G"gec "A7"ceg|"D"fad "A7"eac|"D"d3 "A7"d2f/2g/2|
"D"afd dfa|"G"gec "A7"ceg|"D"fed dcd|"A7"ecA A2G|
"D"FAd FAd|"G"GBd GBd|"D"Agf "A7"eac|"D"d3 d2||


